docs/public/static/branding/about/illustrations/better-light.svg

<svg width="89" height="89" viewBox="0 0 89 89" fill="none" xmlns="http://www.w3.org/2000/svg">
<path d="M82.4855 51.6498L86.8413 50.645L87.3661 44.9849C86.0733 44.4205 83.4224 43.2634 81.6753 42.5005C81.6241 41.1322 81.5025 39.7767 81.3053 38.4378C81.8749 38.0513 82.3728 37.7134 82.73 37.4702L86.4291 34.9588L84.8739 29.492C83.4711 29.4331 80.5962 29.3128 78.6916 29.2322C78.1514 27.9803 77.5422 26.758 76.8625 25.5701C77.2516 25.0069 77.5921 24.5141 77.8366 24.1596L80.3786 20.4822L76.9534 15.9459C75.6184 16.4003 72.8779 17.3309 71.0731 17.944C71.0015 17.871 70.9323 17.7981 70.8594 17.7251C69.9634 16.8291 69.029 15.9856 68.0613 15.1946C68.2226 14.5226 68.3634 13.9363 68.4632 13.5152L69.5052 9.16711L64.6719 6.17451C63.5955 7.0769 61.39 8.92392 59.9283 10.1476C58.6842 9.58439 57.4093 9.09159 56.1088 8.67176C56.0167 7.99337 55.9373 7.40073 55.8797 6.9745L55.2807 2.54447L49.6935 1.5C49.0126 2.73391 47.6161 5.267 46.6958 6.9361C46.0264 6.90026 45.3557 6.88106 44.6798 6.88106C44.004 6.88106 43.3039 6.90154 42.6191 6.93866C42.285 6.33194 41.9919 5.80203 41.7832 5.42315L39.6239 1.50768L34.0368 2.55215C33.8486 3.94477 33.4633 6.7953 33.2073 8.68456C31.9069 9.10695 30.6333 9.60103 29.3904 10.1655C28.8656 9.72647 28.4074 9.34247 28.0784 9.06727L24.6506 6.19627L19.8174 9.18887C20.1464 10.5585 20.8183 13.368 21.2625 15.2214C20.3076 16.0048 19.3848 16.8381 18.5003 17.7238C18.4171 17.807 18.3377 17.8915 18.2558 17.9747C17.5992 17.752 17.0258 17.5561 16.6149 17.4166L12.382 15.9779L8.95672 20.5142C9.75543 21.67 11.3925 24.038 12.4767 25.606C11.7996 26.7938 11.1916 28.0175 10.6527 29.2706C9.96919 29.2987 9.37144 29.3243 8.94264 29.3422L4.47549 29.5304L2.92031 34.9972C4.08509 35.7883 6.47227 37.4087 8.05049 38.4788C7.85593 39.8164 7.73434 41.1732 7.6857 42.5415C7.05082 42.8192 6.49531 43.0611 6.09723 43.2352L2 45.0233L2.52479 50.6834C3.89438 50.9996 6.70139 51.6473 8.55865 52.0761C8.85816 53.4111 9.2332 54.7244 9.67735 56.012C9.19096 56.4946 8.766 56.9157 8.46137 57.2178L5.28701 60.3653L7.82138 65.4532C9.214 65.2522 12.0684 64.8426 13.9551 64.5713C14.7128 65.6938 15.5371 66.778 16.4242 67.8212C16.1426 68.4535 15.8955 69.0052 15.7189 69.4007L13.8962 73.4825L18.0971 77.3123C19.3233 76.6223 21.8372 75.208 23.4986 74.2736C24.6199 75.0595 25.7796 75.7776 26.9738 76.4291C26.9392 77.1139 26.9085 77.7116 26.888 78.1404L26.6628 82.605L31.9632 84.6581C32.8566 83.5727 34.6883 81.3481 35.9004 79.8761C37.2188 80.1961 38.5602 80.4431 39.9183 80.6172C40.1346 81.2725 40.324 81.8447 40.4597 82.2556L41.8626 86.5H47.547C47.9886 85.1624 48.8948 82.4207 49.4939 80.6108C50.8519 80.4354 52.1921 80.1871 53.5105 79.8658C53.9469 80.3957 54.3284 80.8591 54.601 81.1906L57.4426 84.6427L62.743 82.5896C62.6726 81.1868 62.5267 78.3107 62.4307 76.406C63.6236 75.7532 64.782 75.0339 65.9033 74.2467C66.5036 74.5846 67.0271 74.879 67.4034 75.0902L71.2997 77.2828L75.5006 73.4531C74.9259 72.1667 73.747 69.5261 72.9701 67.7853C73.8545 66.7409 74.6789 65.6554 75.4353 64.5316C76.1163 64.6289 76.7102 64.7146 77.1377 64.7761L81.5626 65.4122L84.0957 60.3243C83.0986 59.3349 81.0545 57.3086 79.7015 55.9659C80.1444 54.6783 80.5181 53.365 80.8151 52.0287C81.4833 51.8738 82.0682 51.7394 82.4868 51.6421L82.4855 51.6498Z" fill="#E7F2FE" fill-opacity="0.5"/>
<path d="M49.7956 41.4304C50.3921 40.2093 51.7348 43.3594 52.4324 44.5242C53.13 45.6902 53.5332 47.0905 53.2516 48.4204C52.97 49.7503 51.6862 51.8431 50.5419 51.1084C48.3928 49.7299 48.9969 43.0637 49.7943 41.4292L49.7956 41.4304Z" fill="#004C99"/>
<path d="M52.7182 67.4065L55.6519 69.0065L56.4583 65.763L59.616 66.8561L59.8771 63.5243L63.1718 64.0849L62.8838 60.7557L66.2258 60.7697L65.3964 57.5327L68.6949 56.9976L67.3433 53.941L70.5087 52.8684L68.6693 50.078L71.612 48.4947L69.3375 46.0473L71.9807 44.0032L69.3375 41.9591L71.612 39.5117L68.6693 37.9297L70.5087 35.1393L67.3433 34.0667L68.6949 31.0101L65.3964 30.475L66.2258 27.238L62.8838 27.252L63.1718 23.9228L59.8771 24.4834L59.616 21.1516L56.4583 22.2447L55.6519 19.0013L52.7182 20.6012L51.3857 17.537L48.7579 19.6016L46.9365 16.7997L44.6837 19.2675L42.4309 16.7997L40.6095 19.6016L37.9817 17.537L36.6492 20.6012L33.7155 19.0013L32.9091 22.2447L29.7514 21.1516L29.4903 24.4834L26.1956 23.9228L26.4836 27.252L23.1415 27.238L23.971 30.475L20.6724 31.0101L22.0241 34.0667L18.8587 35.1393L20.698 37.9297L17.7554 39.513L20.0299 41.9604L17.3867 44.0045L20.0299 46.0486L17.7554 48.496L20.698 50.078L18.8587 52.8684L22.0228 53.941" stroke="#8DCEFF" stroke-width="2.55997" stroke-linecap="round" stroke-linejoin="round"/>
<path d="M30.8456 48.487C30.4578 50.3071 29.3404 60.6059 28.7823 63.0647C28.5586 64.3134 28.1562 65.1195 27.6158 66.2535C27.1024 67.3308 27.4715 68.6029 28.4812 69.239C29.8064 70.0739 31.6744 71.1576 33.2174 71.6982C34.8223 72.2605 37.0627 72.5811 38.6458 72.7503C39.7789 72.8714 40.8124 72.1677 41.2335 71.1087C42.8878 66.9487 43.9752 66.3543 45.0343 64.6174C47.1437 61.1576 51.3036 58.0894 54.2361 55.5231C55.5826 54.3442 56.6501 52.7263 57.6165 51.2492C58.4741 49.9385 59.3816 48.6623 60.2891 47.3875C61.0264 46.3507 61.8098 45.479 60.613 44.4256C59.2946 43.2634 57.893 44.0698 56.7103 45.0182C55.9525 45.6249 55.0041 47.23 54.2246 47.9942C52.4966 49.6889 50.752 50.1433 49.8368 47.8816C49.4438 46.91 49.463 43.6423 49.8406 42.1344C51.0528 37.7684 53.2249 34.1947 54.359 30.0936C54.6994 28.8648 54.9926 27.3237 54.1042 26.2037C53.7087 25.7045 52.9855 25.4306 52.3775 25.6508C51.7504 25.876 51.4022 26.525 51.1936 27.1432C50.3257 29.7224 48.7526 31.9048 47.2909 34.4046L47.2685 34.4428C46.17 36.3216 44.8734 38.539 42.4833 37.227C41.9303 36.9236 41.3172 36.6292 40.6964 36.7354C39.2705 36.9786 38.8635 38.8769 37.4811 39.1162C36.8168 39.2301 36.3457 38.7578 35.6443 39.0305C34.4654 39.4887 34.6126 40.7738 33.8318 41.5188C33.5438 41.7927 33.147 41.7376 32.8603 41.9693C32.4533 42.2983 32.1256 43.0266 31.9349 43.5027C31.3026 45.081 31.1976 46.8371 30.8456 48.487Z" fill="url(#paint0_linear_729_1571)"/>
<path d="M82.4861 51.646C82.4858 51.6478 82.4875 51.6494 82.4893 51.649L85.4221 50.9724C86.2692 50.777 86.8955 50.0604 86.9757 49.1948L87.1953 46.8271C87.2972 45.7275 86.6828 44.6866 85.6708 44.2448C84.8772 43.8984 83.986 43.5093 83.1488 43.1439C82.2479 42.7505 81.6595 41.8753 81.5821 40.8953C81.5593 40.6067 81.5332 40.3188 81.5039 40.0316C81.4039 39.0546 81.8222 38.0879 82.6342 37.5353C82.6671 37.5129 82.6991 37.4912 82.73 37.4702L84.8985 35.9979C85.8121 35.3777 86.2251 34.2415 85.9229 33.1795L85.3802 31.2717C85.078 30.2094 84.1289 29.4608 83.0255 29.4145C82.1669 29.3785 81.2035 29.3381 80.297 29.2999C79.3153 29.2586 78.4513 28.6553 78.023 27.771C77.8958 27.5083 77.7654 27.2471 77.6318 26.9873C77.1811 26.1109 77.2194 25.0543 77.779 24.243C77.7987 24.2144 77.8179 24.1866 77.8366 24.1596L79.3266 22.004C79.9546 21.0957 79.9292 19.887 79.2638 19.0057L78.0688 17.4232C77.4031 16.5415 76.2471 16.1863 75.201 16.5417C73.9719 16.9594 72.5163 17.4537 71.3623 17.8457C71.1852 17.9059 70.9916 17.8574 70.8594 17.7251V17.7251C70.3463 17.2121 69.8207 16.7162 69.2835 16.2376C68.5499 15.5841 68.2083 14.5877 68.4356 13.6319C68.4451 13.5917 68.4543 13.5528 68.4632 13.5152L69.074 10.9663C69.3314 9.89237 68.8711 8.77451 67.9322 8.19318L66.2457 7.14892C65.3064 6.56736 64.1002 6.65379 63.2533 7.36319C62.5951 7.91455 61.8566 8.53301 61.1616 9.115C60.4076 9.74634 59.3616 9.88234 58.4486 9.5168C58.1773 9.40814 57.9046 9.30275 57.6306 9.20066C56.7079 8.8568 56.0249 8.0508 55.8933 7.0749C55.8886 7.04049 55.8841 7.00701 55.8797 6.9745L55.5286 4.37784C55.3806 3.28352 54.5476 2.40743 53.4621 2.2045L51.5116 1.83987C50.4264 1.637 49.3335 2.15253 48.8003 3.11931C48.382 3.87789 47.9122 4.72992 47.471 5.53012C46.9969 6.38994 46.0729 6.89463 45.0911 6.88342C44.9542 6.88185 44.8171 6.88106 44.6798 6.88106C44.5296 6.88106 44.3781 6.88207 44.2259 6.88405C43.243 6.89685 42.317 6.39161 41.8425 5.53072C41.8221 5.49364 41.8023 5.45777 41.7832 5.42315L40.5174 3.12778C39.9841 2.16077 38.8908 1.64473 37.8053 1.84766L35.8555 2.21214C34.7699 2.41508 33.9369 3.29114 33.789 4.38557C33.6739 5.23681 33.5448 6.19182 33.4231 7.09059C33.2913 8.06512 32.6098 8.87033 31.6888 9.21495C31.4148 9.31746 31.1421 9.42323 30.8708 9.53226C29.9575 9.89925 28.9104 9.76348 28.1556 9.13181C28.1291 9.10969 28.1034 9.08817 28.0784 9.06727L26.069 7.38424C25.2224 6.67516 24.0165 6.58889 23.0776 7.17025L21.3912 8.21439C20.4519 8.79599 19.9916 9.91436 20.2489 10.9888C20.4505 11.8302 20.6766 12.775 20.8891 13.6625C21.1174 14.6161 20.776 15.6107 20.0446 16.2637C19.5182 16.7338 19.0031 17.2203 18.5003 17.7238V17.7238C18.3488 17.8753 18.1269 17.931 17.924 17.8621C17.4063 17.6861 16.9549 17.5321 16.6149 17.4166L14.1338 16.5733C13.0882 16.2179 11.9325 16.5732 11.267 17.4545L10.0714 19.038C9.40603 19.9191 9.38051 21.1274 10.0083 22.0357C10.4969 22.7424 11.045 23.5353 11.5609 24.2814C12.1207 25.0911 12.1596 26.1464 11.7106 27.0223C11.5776 27.2816 11.4479 27.5425 11.3212 27.8047C10.8931 28.6915 10.0267 29.2967 9.04279 29.338C9.00846 29.3395 8.97507 29.3409 8.94264 29.3422L6.32384 29.4525C5.22057 29.499 4.27144 30.2477 3.9693 31.3098L3.42641 33.2182C3.12431 34.2801 3.5369 35.416 4.4504 36.0361C5.16552 36.5215 5.96847 37.0665 6.72319 37.5785C7.53496 38.1293 7.95319 39.0946 7.85427 40.0705C7.82517 40.3577 7.79936 40.6456 7.77684 40.9341C7.70027 41.9152 7.112 42.7918 6.21017 43.1858C6.17125 43.2028 6.13358 43.2193 6.09723 43.2352L3.6959 44.2832C2.68367 44.725 2.06887 45.7661 2.17083 46.8658L2.35401 48.8415C2.45595 49.941 3.25117 50.8511 4.32707 51.0994C5.16482 51.2927 6.10491 51.5097 6.98937 51.7138C7.94862 51.9352 8.68817 52.6892 8.94625 53.6393C9.02281 53.9211 9.1027 54.2018 9.18588 54.4814C9.4661 55.4236 9.23367 56.452 8.53568 57.1441C8.51018 57.1694 8.4854 57.1939 8.46137 57.2178L6.60103 59.0624C5.81674 59.84 5.61961 61.033 6.11205 62.0216L6.99617 63.7965C7.48869 64.7853 8.5597 65.3467 9.65311 65.1895C10.5071 65.0668 11.4657 64.9291 12.3668 64.7996C13.3382 64.66 14.2976 65.0927 14.8821 65.881C15.0541 66.1129 15.2291 66.3431 15.4069 66.5715C16.012 67.3486 16.1689 68.3935 15.7671 69.2927C15.7505 69.3299 15.7344 69.3659 15.7189 69.4007L14.6505 71.7933C14.2003 72.8016 14.4473 73.985 15.2633 74.7289L16.7297 76.0657C17.5459 76.8097 18.747 76.9466 19.7095 76.4051C20.4599 75.9829 21.3021 75.5091 22.0942 75.0635C22.9526 74.5807 24.0076 74.64 24.8384 75.1689C25.0837 75.3251 25.3307 75.4783 25.5793 75.6283C26.421 76.1365 26.9407 77.0533 26.8931 78.0353C26.8913 78.0714 26.8897 78.1064 26.888 78.1404L26.756 80.7571C26.7003 81.8601 27.3583 82.8744 28.3881 83.2733L30.2379 83.9898C31.2677 84.3887 32.4371 84.0824 33.139 83.2298C33.6869 82.5643 34.3019 81.8174 34.8802 81.115C35.5042 80.3573 36.5049 80.0308 37.468 80.2201C37.7522 80.276 38.0373 80.3285 38.3233 80.3778C39.2946 80.5451 40.1152 81.2129 40.4245 82.1488C40.4366 82.1855 40.4483 82.2211 40.4597 82.2556L41.282 84.7434C41.6285 85.7919 42.6084 86.5 43.7126 86.5H45.6963C46.8009 86.5 47.7808 85.7917 48.1274 84.7429C48.3982 83.9234 48.7023 83.0037 48.9883 82.1391C49.2972 81.2048 50.116 80.5383 51.0856 80.3704C51.3719 80.3208 51.6573 80.2679 51.9418 80.2117C52.9055 80.0213 53.9075 80.3476 54.5315 81.1062C54.5554 81.1352 54.5786 81.1633 54.601 81.1906L56.2667 83.2142C56.9686 84.0669 58.1381 84.3733 59.1679 83.9744L61.0182 83.2577C62.0477 82.8589 62.7056 81.8452 62.6499 80.7425C62.6064 79.8827 62.5575 78.9175 62.5117 78.0097C62.4621 77.029 62.9821 76.1132 63.8221 75.6048C64.0706 75.4544 64.3175 75.3009 64.5627 75.1444C65.3938 74.614 66.4501 74.555 67.3098 75.0376C67.3419 75.0557 67.3731 75.0732 67.4034 75.0902L69.687 76.3753C70.6496 76.917 71.851 76.7802 72.6672 76.0362L74.1332 74.6997C74.9493 73.9557 75.1964 72.7722 74.7461 71.7638C74.3936 70.9743 73.9978 70.0878 73.626 69.2548C73.225 68.3565 73.3805 67.3126 73.984 66.5357C74.162 66.3066 74.3371 66.0756 74.5093 65.8429C75.0933 65.0537 76.0528 64.62 77.0245 64.7598C77.0634 64.7654 77.1012 64.7708 77.1377 64.7761L79.7313 65.1489C80.8244 65.3061 81.895 64.7446 82.3872 63.756L83.2715 61.9798C83.7635 60.9916 83.5667 59.7994 82.7828 59.0221C82.1719 58.4163 81.4863 57.7364 80.8414 57.0968C80.1442 56.4053 79.912 55.3782 80.191 54.4367C80.3783 53.8047 80.5487 53.1669 80.7014 52.5237C80.773 52.2217 81.0076 51.9841 81.31 51.9142C81.7697 51.8079 82.172 51.7153 82.483 51.643C82.4848 51.6426 82.4864 51.6442 82.4861 51.646V51.646Z" stroke="#8DCEFF" stroke-width="3.07197" stroke-linecap="round" stroke-linejoin="round"/>
<defs>
<linearGradient id="paint0_linear_729_1571" x1="63.778" y1="36.0744" x2="21.7294" y2="42.2664" gradientUnits="userSpaceOnUse">
<stop stop-color="#007FFF"/>
<stop offset="1" stop-color="#3399FF"/>
</linearGradient>
</defs>
</svg>

<svg xmlns="http://www.w3.org/2000/svg" width="89" height="89" fill="none"><path fill="#E7F2FE" fill-opacity=".5" d="m82.486 51.65 4.355-1.005.525-5.66-5.69-2.484a37.494 37.494 0 0 0-.37-4.063l1.424-.968 3.7-2.511-1.556-5.467-6.182-.26a36.441 36.441 0 0 0-1.83-3.662l.975-1.41 2.542-3.678-3.426-4.536-5.88 1.998c-.072-.073-.14-.146-.214-.219a37.685 37.685 0 0 0-2.798-2.53c.162-.672.302-1.259.402-1.68l1.042-4.348-4.833-2.992-4.744 3.973a36.304 36.304 0 0 0-3.82-1.476l-.228-1.698-.6-4.43L49.694 1.5l-2.997 5.436a37.662 37.662 0 0 0-4.077.003l-.836-1.516-2.16-3.915-5.586 1.044-.83 6.133c-1.3.422-2.574.916-3.817 1.48l-1.312-1.098-3.427-2.87-4.834 2.992c.33 1.37 1.001 4.179 1.445 6.032a37.645 37.645 0 0 0-2.762 2.503c-.083.083-.162.168-.244.25l-1.641-.557-4.233-1.44-3.425 4.537 3.52 5.092a36.578 36.578 0 0 0-1.824 3.665l-1.71.071-4.468.188-1.555 5.467 5.13 3.482a37.481 37.481 0 0 0-.364 4.063l-1.589.693L2 45.023l.525 5.66 6.034 1.393c.3 1.335.674 2.648 1.118 3.936l-1.216 1.206-3.174 3.147 2.534 5.088 6.134-.882a36.8 36.8 0 0 0 2.47 3.25l-.706 1.58-1.823 4.082 4.201 3.83 5.402-3.04a36.549 36.549 0 0 0 3.475 2.156c-.035.685-.066 1.283-.086 1.711l-.225 4.465 5.3 2.053 3.937-4.782c1.319.32 2.66.567 4.018.741l.542 1.639 1.403 4.244h5.684l1.947-5.89a36.947 36.947 0 0 0 4.017-.744l1.09 1.325 2.842 3.452 5.3-2.053-.312-6.184a36.712 36.712 0 0 0 3.472-2.16c.6.339 1.124.633 1.5.844l3.897 2.193 4.2-3.83a20737.6 20737.6 0 0 1-2.53-5.668 37.065 37.065 0 0 0 2.465-3.253l1.703.244 4.425.636 2.533-5.088-4.395-4.358a36.35 36.35 0 0 0 1.114-3.937l1.672-.387-.001.008Z"/><path fill="#004C99" d="M49.796 41.43c.596-1.22 1.939 1.93 2.636 3.094.698 1.166 1.101 2.566.82 3.896-.282 1.33-1.566 3.423-2.71 2.688-2.15-1.378-1.545-8.044-.748-9.679l.002.001Z"/><path stroke="#C2E0FF" stroke-linecap="round" stroke-linejoin="round" stroke-opacity=".5" stroke-width="2.56" d="m52.718 67.406 2.934 1.6.806-3.243 3.158 1.093.261-3.332 3.295.56-.288-3.328 3.342.014-.83-3.237 3.299-.535-1.352-3.057 3.166-1.073-1.84-2.79 2.943-1.583-2.274-2.448 2.643-2.044-2.643-2.044 2.274-2.447-2.943-1.582 1.84-2.79-3.166-1.073 1.352-3.057-3.299-.535.83-3.237-3.342.014.288-3.33-3.295.561-.261-3.331-3.158 1.093L55.652 19l-2.934 1.6-1.332-3.064-2.628 2.065-1.822-2.802-2.252 2.467L42.43 16.8l-1.822 2.802-2.627-2.065-1.333 3.064-2.934-1.6-.806 3.244-3.158-1.093-.26 3.331-3.295-.56.288 3.329-3.343-.014.83 3.237-3.299.535 1.352 3.057-3.165 1.072 1.839 2.79-2.943 1.584 2.275 2.447-2.643 2.044 2.643 2.045-2.275 2.447 2.943 1.582-1.84 2.79 3.165 1.073"/><path fill="url(#a)" d="M30.846 48.487c-.388 1.82-1.506 12.119-2.064 14.578-.223 1.248-.626 2.055-1.166 3.189a2.328 2.328 0 0 0 .865 2.985c1.325.835 3.193 1.919 4.736 2.46 1.605.561 3.846.882 5.429 1.051 1.133.121 2.166-.582 2.587-1.641 1.655-4.16 2.742-4.755 3.801-6.492 2.11-3.46 6.27-6.528 9.202-9.094 1.347-1.179 2.414-2.797 3.38-4.274.858-1.31 1.766-2.587 2.673-3.861.737-1.037 1.52-1.909.324-2.962-1.318-1.163-2.72-.356-3.903.592-.758.607-1.706 2.212-2.485 2.976-1.728 1.695-3.473 2.15-4.388-.112-.393-.972-.374-4.24.004-5.748 1.212-4.366 3.384-7.94 4.518-12.04.34-1.23.634-2.77-.255-3.89-.395-.5-1.118-.773-1.727-.553-.627.225-.975.874-1.183 1.492-.868 2.58-2.441 4.762-3.903 7.262l-.022.038c-1.099 1.879-2.396 4.096-4.786 2.784-.553-.303-1.166-.598-1.787-.492-1.425.244-1.832 2.142-3.215 2.381-.664.114-1.135-.358-1.837-.085-1.179.458-1.031 1.743-1.812 2.488-.288.274-.685.219-.972.45-.407.33-.734 1.058-.925 1.534-.632 1.578-.737 3.334-1.09 4.984Z"/><path stroke="#8DCEFF" stroke-linecap="round" stroke-linejoin="round" stroke-width="3.072" d="M82.486 51.646c0 .002.001.003.003.003l2.933-.677a2.015 2.015 0 0 0 1.554-1.777l.22-2.368a2.56 2.56 0 0 0-1.525-2.582l-2.522-1.101c-.901-.393-1.49-1.269-1.567-2.249a37.987 37.987 0 0 0-.078-.863c-.1-.977.318-1.944 1.13-2.497l.096-.065 2.168-1.472a2.56 2.56 0 0 0 1.025-2.819l-.543-1.907a2.56 2.56 0 0 0-2.355-1.857l-2.728-.115c-.982-.041-1.846-.645-2.274-1.529a36.424 36.424 0 0 0-.391-.784c-.45-.876-.413-1.933.147-2.744l.058-.083 1.49-2.156a2.56 2.56 0 0 0-.063-2.998l-1.195-1.583a2.56 2.56 0 0 0-2.868-.881l-3.839 1.304a.488.488 0 0 1-.503-.12v0a37.674 37.674 0 0 0-1.575-1.488c-.734-.654-1.076-1.65-.848-2.606l.027-.117.611-2.549a2.56 2.56 0 0 0-1.142-2.773L66.246 7.15a2.56 2.56 0 0 0-2.993.214l-2.091 1.752c-.754.631-1.8.767-2.713.402a36.1 36.1 0 0 0-.818-.316c-.923-.344-1.606-1.15-1.738-2.126l-.013-.1-.351-2.597a2.56 2.56 0 0 0-2.067-2.174l-1.95-.364A2.559 2.559 0 0 0 48.8 3.12l-1.329 2.41c-.474.86-1.398 1.365-2.38 1.353a35.866 35.866 0 0 0-.865.001c-.983.013-1.909-.492-2.383-1.353l-.06-.108-1.266-2.295a2.56 2.56 0 0 0-2.712-1.28l-1.95.364a2.56 2.56 0 0 0-2.066 2.174l-.366 2.705c-.132.974-.813 1.78-1.734 2.124-.274.102-.547.208-.818.317-.913.367-1.96.231-2.715-.4l-.078-.065-2.009-1.683a2.56 2.56 0 0 0-2.991-.214L21.39 8.214c-.94.582-1.4 1.7-1.142 2.775l.64 2.673c.228.954-.113 1.949-.844 2.602-.527.47-1.042.956-1.545 1.46v0a.56.56 0 0 1-.576.138l-1.31-.445-2.48-.844a2.56 2.56 0 0 0-2.867.881l-1.196 1.584a2.56 2.56 0 0 0-.063 2.998l1.553 2.245c.56.81.599 1.865.15 2.741-.133.26-.263.52-.39.783-.428.887-1.294 1.492-2.278 1.533l-.1.004-2.62.11A2.56 2.56 0 0 0 3.97 31.31l-.543 1.908a2.56 2.56 0 0 0 1.024 2.818l2.273 1.542c.812.551 1.23 1.517 1.131 2.492-.029.288-.055.576-.077.864-.077.981-.665 1.858-1.567 2.252l-.113.05-2.401 1.047a2.56 2.56 0 0 0-1.525 2.583l.183 1.976a2.56 2.56 0 0 0 1.973 2.257l2.662.615c.96.221 1.7.975 1.957 1.925.077.282.157.563.24.842.28.943.048 1.971-.65 2.663l-.075.074-1.86 1.844a2.56 2.56 0 0 0-.489 2.96l.884 1.775a2.561 2.561 0 0 0 2.657 1.392l2.714-.39c.971-.139 1.93.294 2.515 1.082.172.232.347.462.525.69.605.778.762 1.823.36 2.722l-.048.108-1.069 2.392a2.56 2.56 0 0 0 .613 2.936l1.467 1.337a2.56 2.56 0 0 0 2.98.34l2.384-1.343c.859-.482 1.914-.423 2.744.106.246.156.493.31.741.46.842.507 1.362 1.424 1.314 2.406l-.005.105-.132 2.617a2.56 2.56 0 0 0 1.632 2.516l1.85.717a2.56 2.56 0 0 0 2.901-.76l1.741-2.115c.624-.758 1.625-1.084 2.588-.895.284.056.57.109.855.158.972.167 1.792.835 2.102 1.77l.035.108.822 2.487a2.56 2.56 0 0 0 2.43 1.757h1.984a2.56 2.56 0 0 0 2.431-1.757l.861-2.604c.31-.934 1.128-1.6 2.098-1.769.286-.05.571-.102.856-.158.964-.19 1.965.136 2.59.894.023.03.047.057.069.085l1.666 2.023a2.56 2.56 0 0 0 2.9.76l1.851-.716a2.559 2.559 0 0 0 1.632-2.515l-.138-2.733c-.05-.981.47-1.897 1.31-2.405.249-.15.495-.304.74-.46.832-.531 1.888-.59 2.748-.107l.093.052 2.284 1.285a2.56 2.56 0 0 0 2.98-.339l1.466-1.336a2.56 2.56 0 0 0 .613-2.936l-1.12-2.51c-.401-.898-.246-1.941.358-2.718.178-.23.353-.46.525-.693.584-.79 1.544-1.223 2.516-1.083l.113.016 2.593.373a2.56 2.56 0 0 0 2.656-1.393l.885-1.776a2.559 2.559 0 0 0-.49-2.958l-1.94-1.925c-.698-.692-.93-1.719-.651-2.66.187-.632.358-1.27.51-1.913a.817.817 0 0 1 .609-.61l1.173-.271c.002 0 .003.001.003.003v0Z"/><defs><linearGradient id="a" x1="63.778" x2="21.729" y1="36.074" y2="42.266" gradientUnits="userSpaceOnUse"><stop stop-color="#007FFF"/><stop offset="1" stop-color="#39F"/></linearGradient></defs></svg>
